resources/assets/svgs/uxlab-logo.svg

<svg xmlns="http://www.w3.org/2000/svg" viewBox="0 0 466.4 155"><path d="M373 155v-28.1h4.6V155H373zm8-6v-22.1h9.2c7.9 0 14.5 3 14.5 14.1 0 10.9-7.1 14.1-15.1 14.1H387c-3.3-.1-6-2.8-6-6.1zm4.6-.1c0 1.1.9 2 2 2h2.8c6.2 0 9.7-2.7 9.7-10 0-7.2-3.4-9.8-10.1-9.8h-4.4v17.8zm21.3.1v-22.1h18.9v4.3h-14.3v7.6h14.3v4.1h-14.3v6c0 1.1.9 2 2 2h12.3v4.1h-12.9c-3.3 0-6-2.7-6-6zm51.3 6h1.3L436 127.8c-.5-.6-1.3-1-2.2-1h-4.6V155h4.6v-5.5h15l1.8 2c1.9 2.3 4.7 3.5 7.6 3.5zm-24.3-9.5v-13.3l11.5 13.3h-11.5zm-69 4.2l-16.8-19.4c-1.9-2.2-4.7-3.5-7.6-3.5h-1.3l25.7 28.1c.5.6-.9 0 0 0h4.6v-28.1h-4.6v22.9zm97.2 5.3v-2.5h-.8v-.5h2.1v.4h-.8v2.5h-.5zm1.6 0v-3h.6l.7 2.2.7-2.2h.6v3h-.4v-2.2l-.7 2.2h-.3l-.7-2.2v2.2h-.5z" fill="#818285"/><path d="M194.4 27.5v55.8c0 9.7-3.2 17.2-9.7 22.6-6.5 5.3-14.9 8-25.3 8-10.6 0-19.1-2.7-25.5-8-6.5-5.3-9.7-12.9-9.7-22.6V27.5H144v55.8c0 5.2 1.3 9.1 4 11.6s6.5 3.8 11.4 3.8 8.6-1.2 11.3-3.7c2.6-2.5 3.9-6.4 3.9-11.6V27.5h19.8zm37 28.7l14-28.7h22.8l-24.4 42.2 26.3 42.9h-24l-14.5-29.3-14.5 29.3h-22.8l25-42.9L195 27.5h22.6l13.8 28.7zm49.6 50.5h42.1v6H274V27.5h7v79.2zm98.1-17.8h-39l-8.8 23.7H324l32.3-85.1h6.6l32.1 85.1h-7.3l-8.6-23.7zm-36.7-6.3h34.4l-17-46.1h-.4l-17 46.1zm58.5 30V27.5h24.8c8.8 0 15.7 1.9 20.7 5.6 4.9 3.7 7.4 9.3 7.4 16.8 0 4.4-1.2 8.2-3.7 11.4-2.5 3.2-5.8 5.5-10.1 6.7 5.2.9 9.4 3.4 12.6 7.3 3.2 3.9 4.9 8.5 4.9 13.6 0 7.6-2.5 13.4-7.4 17.5s-11.5 6.1-19.8 6.1h-29.4zm7-46.9h19.6c6.2 0 10.9-1.4 14.3-4.1 3.4-2.7 5.1-6.7 5.1-12 0-5.4-1.8-9.4-5.4-12.1-3.6-2.7-8.8-4.1-15.7-4.1h-17.9v32.3zm0 5.9v35h22.5c6.3 0 11.2-1.5 14.8-4.6 3.6-3.1 5.4-7.4 5.4-13 0-5.1-1.6-9.3-4.9-12.5s-8-4.9-14.2-4.9h-23.6z" fill="#010101"/><circle fill="#010101" cx="48.2" cy="18.6" r="18.6"/><path fill="#64B1BC" d="M24.9 49.5c-3.1-6.2-3.2-12.8-3.3-13.1V10.7H0v25.7c0 1.1.1 11.3 5.1 21.8 2.3 5 5.4 9.2 9 12.6 7.4-7 17.4-10.8 29.1-10.8-8.9 0-14.7-3.4-18.3-10.5z"/><path fill="#2BACE2" d="M43.2 81.7H52h-8.8zM52.1 60h-8.8 8.8z"/><path fill="#64B1BC" d="M70.4 92.2c3.1 6.2 3.2 12.8 3.3 13.1V131h21.7v-25.7c0-1.1-.1-11.3-5.1-21.8-2.3-5-5.4-9.2-9-12.6-7.4 7-17.4 10.8-29.1 10.8 8.8 0 14.6 3.3 18.2 10.5z"/><path fill="#682666" d="M73.7 10.7v25.7c0 .1-.1 6.5-3 12.6-3.5 7.5-9.4 11-18.5 11h-8.8c-11.7 0-21.7 3.8-29.1 10.8-3.6 3.4-6.7 7.6-9 12.6C.1 93.9 0 104.1 0 105.3V131h21.7v-25.7c0-.1.1-6.5 3-12.6 3.5-7.5 9.4-11 18.5-11H52c11.7 0 21.7-3.8 29.1-10.8 3.6-3.4 6.7-7.6 9-12.6 4.9-10.5 5.1-20.7 5.1-21.8V10.7H73.7z"/></svg>

<svg xmlns="http://www.w3.org/2000/svg" width="458" height="131" viewBox="0 0 458 131">
  <g fill="none">
    <path fill="#010101" d="M194.4,27.5 L194.4,83.3 C194.4,93 191.2,100.5 184.7,105.9 C178.2,111.2 169.8,113.9 159.4,113.9 C148.8,113.9 140.3,111.2 133.9,105.9 C127.4,100.6 124.2,93 124.2,83.3 L124.2,27.5 L144,27.5 L144,83.3 C144,88.5 145.3,92.4 148,94.9 C150.7,97.4 154.5,98.7 159.4,98.7 C164.3,98.7 168,97.5 170.7,95 C173.3,92.5 174.6,88.6 174.6,83.4 L174.6,27.5 L194.4,27.5 L194.4,27.5 Z M231.4,56.2 L245.4,27.5 L268.2,27.5 L243.8,69.7 L270.1,112.6 L246.1,112.6 L231.6,83.3 L217.1,112.6 L194.3,112.6 L219.3,69.7 L195,27.5 L217.6,27.5 L231.4,56.2 Z M281,106.7 L323.1,106.7 L323.1,112.7 L274,112.7 L274,27.5 L281,27.5 L281,106.7 Z M379.1,88.9 L340.1,88.9 L331.3,112.6 L324,112.6 L356.3,27.5 L362.9,27.5 L395,112.6 L387.7,112.6 L379.1,88.9 Z M342.4,82.6 L376.8,82.6 L359.8,36.5 L359.4,36.5 L342.4,82.6 Z M400.9,112.6 L400.9,27.5 L425.7,27.5 C434.5,27.5 441.4,29.4 446.4,33.1 C451.3,36.8 453.8,42.4 453.8,49.9 C453.8,54.3 452.6,58.1 450.1,61.3 C447.6,64.5 444.3,66.8 440,68 C445.2,68.9 449.4,71.4 452.6,75.3 C455.8,79.2 457.5,83.8 457.5,88.9 C457.5,96.5 455,102.3 450.1,106.4 C445.2,110.5 438.6,112.5 430.3,112.5 L400.9,112.5 L400.9,112.6 Z M407.9,65.7 L427.5,65.7 C433.7,65.7 438.4,64.3 441.8,61.6 C445.2,58.9 446.9,54.9 446.9,49.6 C446.9,44.2 445.1,40.2 441.5,37.5 C437.9,34.8 432.7,33.4 425.8,33.4 L407.9,33.4 L407.9,65.7 L407.9,65.7 Z M407.9,71.6 L407.9,106.6 L430.4,106.6 C436.7,106.6 441.6,105.1 445.2,102 C448.8,98.9 450.6,94.6 450.6,89 C450.6,83.9 449,79.7 445.7,76.5 C442.4,73.3 437.7,71.6 431.5,71.6 L407.9,71.6 Z"/>
    <circle cx="48.2" cy="18.6" r="18.6" fill="#010101"/>
    <path fill="#64B1BC" d="M24.9,49.5 C21.8,43.3 21.7,36.7 21.6,36.4 L21.6,10.7 L0,10.7 L0,36.4 C0,37.5 0.1,47.7 5.1,58.2 C7.4,63.2 10.5,67.4 14.1,70.8 C21.5,63.8 31.5,60 43.2,60 C34.3,60 28.5,56.6 24.9,49.5 Z"/>
    <path fill="#2BACE2" d="M43.2,81.7 L52,81.7 L43.2,81.7 Z M52.1,60 L43.3,60 L52.1,60 L52.1,60 Z"/>
    <path fill="#64B1BC" d="M70.4,92.2 C73.5,98.4 73.6,105 73.7,105.3 L73.7,131 L95.4,131 L95.4,105.3 C95.4,104.2 95.3,94 90.3,83.5 C88,78.5 84.9,74.3 81.3,70.9 C73.9,77.9 63.9,81.7 52.2,81.7 C61,81.7 66.8,85 70.4,92.2 Z"/>
    <path fill="#682666" d="M73.7,10.7 L73.7,36.4 C73.7,36.5 73.6,42.9 70.7,49 C67.2,56.5 61.3,60 52.2,60 L43.4,60 C31.7,60 21.7,63.8 14.3,70.8 C10.7,74.2 7.6,78.4 5.3,83.4 C0.1,93.9 0,104.1 0,105.3 L0,131 L21.7,131 L21.7,105.3 C21.7,105.2 21.8,98.8 24.7,92.7 C28.2,85.2 34.1,81.7 43.2,81.7 L52,81.7 C63.7,81.7 73.7,77.9 81.1,70.9 C84.7,67.5 87.8,63.3 90.1,58.3 C95,47.8 95.2,37.6 95.2,36.5 L95.2,10.7 L73.7,10.7 Z"/>
  </g>
</svg>
